raw/symbols/sgd.svg

<svg width="42" height="42" viewBox="0 0 42 42" fill="none" xmlns="http://www.w3.org/2000/svg">
<g clip-path="url(#clip0_7674_311011)">
<mask id="mask0_7674_311011" style="mask-type:alpha" maskUnits="userSpaceOnUse" x="0" y="0" width="42" height="42">
<circle cx="21" cy="21" r="21" fill="#D9D9D9"/>
</mask>
<g mask="url(#mask0_7674_311011)">
<path d="M52.5 0H-10.5V42H52.5V0Z" fill="#FF0000"/>
<path d="M17.0625 7.875H24.9375V17.0625H34.125V24.9375H24.9375V34.125H17.0625V24.9375H7.875V17.0625H17.0625V7.875Z" fill="white"/>
<path d="M-3 23H56V2.7875C56 0.7125 54.5571 -0.9875 52.7828 -1H0.217211C-1.55706 -0.9875 -3 0.7125 -3 2.7875V23Z" fill="#ED2939"/>
<path d="M-0.727668 44H52.7277C54.5323 43.9885 56 42.4302 56 40.5281V22H-4V40.5281C-4 42.4302 -2.53234 43.9885 -0.727668 44Z" fill="white"/>
<path d="M19.6202 12.6595C19.6202 16.6495 16.3902 19.8795 12.4002 19.8795C8.41018 19.8795 5.18018 16.6495 5.18018 12.6595C5.18018 8.66945 8.41018 5.43945 12.4002 5.43945C16.3802 5.43945 19.6202 8.66945 19.6202 12.6595Z" fill="white"/>
<path d="M21.8802 12.6598C21.8802 16.4298 18.8202 19.4798 15.0602 19.4798C11.2902 19.4798 8.24023 16.4198 8.24023 12.6598C8.24023 8.88984 11.3002 5.83984 15.0602 5.83984C18.8302 5.83984 21.8802 8.88984 21.8802 12.6598Z" fill="#ED2939"/>
<path d="M13.2902 12.8292L12.3102 12.0792L11.3302 12.8292L11.7102 11.6192L10.7202 10.8692L11.9402 10.8792L12.3102 9.65918L12.6802 10.8792L13.8902 10.8692L12.9102 11.6192L13.2902 12.8292Z" fill="white"/>
<path d="M20.9799 12.8292L19.9999 12.0792L19.0199 12.8292L19.3999 11.6192L18.4199 10.8692L19.6299 10.8792L19.9999 9.65918L20.3799 10.8792L21.5899 10.8692L20.6099 11.6192L20.9799 12.8292Z" fill="white"/>
<path d="M17.1398 9.97957L16.1598 9.22957L15.1798 9.97957L15.5598 8.76957L14.5698 8.01957H15.7898L16.1598 6.80957L16.5298 8.01957H17.7498L16.7598 8.75957L17.1398 9.97957Z" fill="white"/>
<path d="M14.7302 17.3995L13.7502 16.6495L12.7702 17.3995L13.1502 16.1895L12.1602 15.4395L13.3802 15.4495L13.7502 14.2295L14.1202 15.4495L15.3302 15.4395L14.3502 16.1895L14.7302 17.3995Z" fill="white"/>
<path d="M19.54 17.3995L18.56 16.6495L17.58 17.3995L17.96 16.1895L16.98 15.4395L18.19 15.4495L18.56 14.2295L18.94 15.4495L20.15 15.4395L19.17 16.1895L19.54 17.3995Z" fill="white"/>
</g>
</g>
<defs>
<clipPath id="clip0_7674_311011">
<rect width="42" height="42" rx="21" fill="white"/>
</clipPath>
</defs>
</svg>

<svg xmlns="http://www.w3.org/2000/svg" width="42" height="42" fill="none"><g clip-path="url(#a)"><mask id="b" width="42" height="42" x="0" y="0" maskUnits="userSpaceOnUse" style="mask-type:alpha"><circle cx="21" cy="21" r="21" fill="#D9D9D9"/></mask><g mask="url(#b)"><path fill="red" d="M52.5 0h-63v42h63V0Z"/><path fill="#fff" d="M17.063 7.875h7.875v9.188h9.187v7.875h-9.188v9.187h-7.875v-9.188H7.876v-7.875h9.188V7.876Z"/><path fill="#ED2939" d="M-3 23h59V2.788C56 .713 54.557-.987 52.783-1H.217C-1.557-.988-3 .712-3 2.788V23Z"/><path fill="#fff" d="M-.728 44h53.456C54.532 43.989 56 42.43 56 40.528V22H-4v18.528C-4 42.43-2.532 43.988-.728 44ZM19.62 12.66c0 3.99-3.23 7.22-7.22 7.22-3.99 0-7.22-3.23-7.22-7.22 0-3.99 3.23-7.22 7.22-7.22 3.98 0 7.22 3.23 7.22 7.22Z"/><path fill="#ED2939" d="M21.88 12.66c0 3.77-3.06 6.82-6.82 6.82-3.77 0-6.82-3.06-6.82-6.82 0-3.77 3.06-6.82 6.82-6.82 3.77 0 6.82 3.05 6.82 6.82Z"/><path fill="#fff" d="m13.29 12.83-.98-.75-.98.75.38-1.21-.99-.75 1.22.01.37-1.22.37 1.22 1.21-.01-.98.75.38 1.21ZM20.98 12.83l-.98-.75-.98.75.38-1.21-.98-.75 1.21.01.37-1.22.38 1.22 1.21-.01-.98.75.37 1.21ZM17.14 9.98l-.98-.75-.98.75.38-1.21-.99-.75h1.22l.37-1.21.37 1.21h1.22l-.99.74.38 1.22ZM14.73 17.4l-.98-.75-.98.75.38-1.21-.99-.75 1.22.01.37-1.22.37 1.22 1.21-.01-.98.75.38 1.21ZM19.54 17.4l-.98-.75-.98.75.38-1.21-.98-.75 1.21.01.37-1.22.38 1.22 1.21-.01-.98.75.37 1.21Z"/></g></g><defs><clipPath id="a"><rect width="42" height="42" fill="#fff" rx="21"/></clipPath></defs></svg>
